; generated by PrusaSlicer 2.2.0+win64 on 2022-12-06 at 05:49:25 UTC

; 

; external perimeters extrusion width = 0.60mm
; perimeters extrusion width = 0.50mm
; infill extrusion width = 0.50mm
; solid infill extrusion width = 0.50mm
; top infill extrusion width = 0.45mm
; first layer extrusion width = 0.42mm

M73 P0 R34
M73 Q0 S35
M201 X1000 Y1000 Z200 E5000 ; sets maximum accelerations, mm/sec^2
M203 X200 Y200 Z12 E120 ; sets maximum feedrates, mm/sec
M204 P1250 R1250 T1250 ; sets acceleration (P, T) and retract acceleration (R), mm/sec^2
M205 X8.00 Y8.00 Z0.40 E4.50 ; sets the jerk limits, mm/sec
M205 S0 T0 ; sets the minimum extruding and travel feed rate, mm/sec
M107
M862.3 P "MK3S" ; printer model check
M862.1 P0.4 ; nozzle diameter check
M115 U3.11.0 ; tell printer latest fw version
G90 ; use absolute coordinates
M83 ; extruder relative mode
M104 S215 ; set extruder temp
M140 S60 ; set bed temp
M190 S60 ; wait for bed temp
M109 S215 ; wait for extruder temp
G28 W ; home all without mesh bed level
G80 ; mesh bed leveling
G1 Y-3.0 F1000.0 ; go outside print area
G92 E0.0
G1 X60.0 E9.0 F1000.0 ; intro line
M73 Q0 S35
M73 P0 R34
G1 X100.0 E12.5 F1000.0 ; intro line
G92 E0.0
M221 S95

; Don't change E values below. Excessive value can damage the printer.

M907 E538 ; set extruder motor current
G21 ; set units to millimeters
G90 ; use absolute coordinates
M83 ; use relative distances for extrusion
M900 K0.05 ; Filament gcode LA 1.5
M900 K30 ; Filament gcode LA 1.0
;BEFORE_LAYER_CHANGE
G92 E0.0
;0.2


G1 E-0.80000 F2100.00000
G1 Z0.400 F10800.000
;AFTER_LAYER_CHANGE
;0.2
G1 X79.515 Y97.039
G1 Z0.200
G1 E0.80000 F2100.00000
M204 S1000
G1 F1200.000
G1 X120.292 Y67.089 E1.58636
G1 X122.379 Y65.888 E0.07551
G1 X124.658 Y64.994 E0.07674
G1 X127.041 Y64.450 E0.07663
G1 X129.485 Y64.267 E0.07687
G1 X131.919 Y64.449 E0.07651
G1 X134.225 Y64.970 E0.07412
G1 X135.542 Y65.431 E0.04377
G1 X137.674 Y66.462 E0.07424
G1 X139.690 Y67.837 E0.07651
G1 X141.427 Y69.441 E0.07413
G1 X142.337 Y70.499 E0.04376
G1 X143.675 Y72.471 E0.07472
G1 X144.253 Y73.569 E0.03892
G1 X172.230 Y133.878 E2.08450
G1 X173.094 Y136.123 E0.07541
G1 X173.630 Y138.475 E0.07565
G1 X173.785 Y139.878 E0.04424
G1 X173.780 Y142.302 E0.07601
G1 X173.414 Y144.749 E0.07756
G1 X172.717 Y147.055 E0.07554
G1 X172.158 Y148.354 E0.04435
G1 X170.957 Y150.455 E0.07589
G1 X169.425 Y152.407 E0.07781
G1 X167.675 Y154.069 E0.07566
G1 X166.543 Y154.924 E0.04448
G1 X164.418 Y156.175 E0.07732
G1 X162.244 Y157.064 E0.07363
G1 X160.969 Y157.432 E0.04160
G1 X121.931 Y166.777 E1.25862
G1 X121.193 Y166.833 E0.02319
G1 X120.682 Y166.734 E0.01633
G1 X120.204 Y166.526 E0.01633
G1 X101.982 Y156.006 E0.65973
G1 X101.345 Y155.462 E0.02626
G1 X75.519 Y117.758 E1.43291
G1 X74.440 Y115.580 E0.07622
G1 X73.707 Y113.262 E0.07622
G1 X73.336 Y110.860 E0.07621
G1 X73.337 Y108.422 E0.07645
G1 X73.491 Y107.135 E0.04064
G1 X74.006 Y104.935 E0.07085
G1 X74.441 Y103.710 E0.04076
G1 X74.979 Y102.522 E0.04088
G1 X76.133 Y100.580 E0.07085
G1 X76.920 Y99.540 E0.04088
G1 X77.791 Y98.571 E0.04085
G1 X79.470 Y97.079 E0.07043
; printing object 14_tube.stl id:0 copy 0
G1 F8640.000
G1 X82.122 Y95.130 E-0.76000
G1 E-0.04000 F2100.00000
G1 Z0.600 F10800.000
G1 X116.939 Y85.073
G1 Z0.200
G1 E0.80000 F2100.00000
G1 F1200.000
G1 X116.663 Y84.213 E0.02832
G1 X116.426 Y83.209 E0.03234
G1 X116.266 Y82.188 E0.03241
G1 X116.186 Y81.160 E0.03232
G1 X116.186 Y80.128 E0.03236
G1 X116.266 Y79.099 E0.03236
G1 X116.425 Y78.081 E0.03232
G1 X116.501 Y77.742 E0.01090
G1 X116.663 Y77.075 E0.02152
G1 X116.978 Y76.093 E0.03234
G1 X117.368 Y75.137 E0.03236
G1 X117.831 Y74.215 E0.03236
G1 X118.364 Y73.332 E0.03233
G1 X118.964 Y72.491 E0.03240
G1 X119.627 Y71.700 E0.03235
G1 X120.349 Y70.963 E0.03236
G1 X121.127 Y70.284 E0.03236
G1 X121.954 Y69.667 E0.03236
G1 X122.827 Y69.116 E0.03238
G1 X123.741 Y68.636 E0.03237
G1 X124.689 Y68.227 E0.03236
G1 X125.666 Y67.894 E0.03236
G1 X126.665 Y67.637 E0.03235
G1 X127.683 Y67.458 E0.03239
G1 X128.709 Y67.358 E0.03234
G1 X129.734 Y67.339 E0.03213
G1 X130.771 Y67.399 E0.03258
G1 X131.793 Y67.539 E0.03234
G1 X132.464 Y67.680 E0.02149
G1 X132.804 Y67.758 E0.01093
G1 X133.791 Y68.054 E0.03232
G1 X134.754 Y68.426 E0.03236
G1 X135.684 Y68.871 E0.03236
G1 X136.577 Y69.386 E0.03232
G1 X136.867 Y69.580 E0.01093
G1 X137.430 Y69.971 E0.02148
G1 X138.233 Y70.618 E0.03234
G1 X138.983 Y71.326 E0.03236
G1 X139.677 Y72.090 E0.03236
G1 X140.309 Y72.905 E0.03232
G1 X140.503 Y73.194 E0.01093
G1 X140.877 Y73.768 E0.02148
G1 X141.376 Y74.671 E0.03234
G1 X141.803 Y75.611 E0.03236
G1 X142.156 Y76.580 E0.03234
G1 X142.434 Y77.575 E0.03239
G1 X142.633 Y78.587 E0.03235
G1 X142.754 Y79.613 E0.03236
G1 X142.794 Y80.644 E0.03237
G1 X142.754 Y81.676 E0.03237
G1 X142.633 Y82.701 E0.03236
G1 X142.434 Y83.714 E0.03236
G1 X142.157 Y84.708 E0.03235
G1 X141.803 Y85.678 E0.03239
G1 X141.376 Y86.617 E0.03234
G1 X140.877 Y87.520 E0.03236
G1 X140.310 Y88.382 E0.03234
G1 X139.893 Y88.926 E0.02149
G1 X139.676 Y89.199 E0.01093
G1 X138.983 Y89.962 E0.03232
G1 X138.233 Y90.670 E0.03236
G1 X137.429 Y91.318 E0.03236
G1 X136.579 Y91.901 E0.03232
G1 X136.279 Y92.079 E0.01093
G1 X135.684 Y92.417 E0.02146
G1 X134.752 Y92.863 E0.03239
G1 X133.791 Y93.234 E0.03232
G1 X132.802 Y93.531 E0.03236
G1 X131.795 Y93.749 E0.03232
G1 X131.450 Y93.800 E0.01093
G1 X130.771 Y93.889 E0.02149
G1 X129.741 Y93.949 E0.03234
G1 X128.709 Y93.930 E0.03236
G1 X127.682 Y93.830 E0.03236
G1 X126.666 Y93.652 E0.03234
G1 X126.328 Y93.567 E0.01092
G1 X125.666 Y93.394 E0.02147
G1 X124.689 Y93.061 E0.03235
G1 X123.741 Y92.653 E0.03236
G1 X122.827 Y92.172 E0.03237
G1 X121.954 Y91.621 E0.03237
G1 X121.405 Y91.213 E0.02146
G1 X121.126 Y91.004 E0.01092
G1 X120.349 Y90.325 E0.03235
G1 X119.627 Y89.588 E0.03236
G1 X118.964 Y88.797 E0.03236
G1 X118.364 Y87.957 E0.03234
G1 X118.008 Y87.373 E0.02148
G1 X117.831 Y87.072 E0.01093
G1 X117.368 Y86.151 E0.03233
G1 X116.957 Y85.130 E0.03450
G1 X116.545 Y85.003 F10800.000
G1 X116.604 Y85.254
G1 F1200.000
G1 X116.403 Y84.678 E0.01911
G1 X116.138 Y83.689 E0.03213
G1 X115.948 Y82.685 E0.03204
G1 X115.833 Y81.667 E0.03211
G1 X115.795 Y80.644 E0.03209
G1 X115.833 Y79.621 E0.03210
G1 X115.948 Y78.605 E0.03205
G1 X116.138 Y77.599 E0.03212
G1 X116.403 Y76.610 E0.03209
G1 X116.741 Y75.643 E0.03211
G1 X117.150 Y74.706 E0.03205
G1 X117.628 Y73.801 E0.03212
G1 X118.173 Y72.934 E0.03210
G1 X118.781 Y72.110 E0.03212
G1 X119.228 Y71.588 E0.02154
G1 X119.448 Y71.335 E0.01052
G1 X120.173 Y70.610 E0.03212
G1 X120.948 Y69.942 E0.03210
G1 X121.772 Y69.334 E0.03210
G1 X122.353 Y68.969 E0.02152
G1 X122.639 Y68.790 E0.01058
G1 X123.544 Y68.311 E0.03210
G1 X124.482 Y67.902 E0.03210
G1 X125.449 Y67.564 E0.03211
G1 X125.774 Y67.475 E0.01056
G1 X126.437 Y67.299 E0.02151
G1 X127.443 Y67.109 E0.03211
G1 X128.460 Y66.994 E0.03210
G1 X129.484 Y66.956 E0.03212
G1 X130.506 Y66.994 E0.03206
G1 X131.524 Y67.109 E0.03211
G1 X132.529 Y67.299 E0.03209
G1 X133.519 Y67.565 E0.03213
G1 X134.483 Y67.902 E0.03204
G1 X135.422 Y68.312 E0.03211
G1 X136.327 Y68.790 E0.03209
G1 X137.194 Y69.335 E0.03211
G1 X138.016 Y69.942 E0.03204
G1 X138.793 Y70.610 E0.03212
G1 X139.517 Y71.333 E0.03209
G1 X140.184 Y72.109 E0.03209
G1 X140.793 Y72.934 E0.03213
G1 X141.161 Y73.513 E0.02153
G1 X141.336 Y73.799 E0.01051
G1 X141.815 Y74.705 E0.03213
G1 X142.225 Y75.643 E0.03210
G1 X142.563 Y76.610 E0.03211
G1 X142.828 Y77.598 E0.03210
G1 X142.956 Y78.272 E0.02152
G1 X143.018 Y78.604 E0.01057
G1 X143.133 Y79.621 E0.03211
G1 X143.171 Y80.644 E0.03210
G1 X143.133 Y81.667 E0.03210
G1 X143.018 Y82.685 E0.03211
G1 X142.956 Y83.016 E0.01057
G1 X142.828 Y83.690 E0.02152
G1 X142.563 Y84.679 E0.03210
G1 X142.225 Y85.645 E0.03210
G1 X141.815 Y86.584 E0.03213
G1 X141.660 Y86.883 E0.01055
G1 X141.337 Y87.488 E0.02151
G1 X140.792 Y88.356 E0.03211
G1 X140.184 Y89.179 E0.03210
G1 X139.516 Y89.956 E0.03213
G1 X139.281 Y90.196 E0.01054
G1 X138.793 Y90.678 E0.02149
G1 X138.017 Y91.346 E0.03211
G1 X137.193 Y91.954 E0.03209
G1 X136.326 Y92.498 E0.03210
G1 X135.722 Y92.821 E0.02149
G1 X135.423 Y92.976 E0.01056
G1 X134.484 Y93.386 E0.03211
G1 X133.518 Y93.724 E0.03209
G1 X132.528 Y93.989 E0.03213
G1 X131.855 Y94.121 E0.02151
G1 X131.525 Y94.179 E0.01050
G1 X130.507 Y94.294 E0.03214
G1 X129.483 Y94.332 E0.03210
G1 X128.460 Y94.294 E0.03210
G1 X127.443 Y94.179 E0.03211
G1 X126.438 Y93.989 E0.03207
G1 X125.449 Y93.724 E0.03212
G1 X124.482 Y93.386 E0.03210
G1 X123.544 Y92.977 E0.03210
G1 X122.639 Y92.499 E0.03210
G1 X121.772 Y91.954 E0.03211
G1 X120.948 Y91.346 E0.03208
G1 X120.172 Y90.678 E0.03211
G1 X119.449 Y89.954 E0.03208
G1 X118.781 Y89.178 E0.03211
G1 X118.173 Y88.354 E0.03210
G1 X117.628 Y87.487 E0.03212
G1 X117.150 Y86.583 E0.03206
G1 X116.741 Y85.644 E0.03211
G1 X116.624 Y85.310 E0.01110
G1 X116.859 Y84.946 F10800.000
; stop printing object 14_tube.stl id:0 copy 0
; printing object 135_tube.stl id:1 copy 0
G1 F8640.000
G1 X116.403 Y84.678 E-0.15459
G1 X116.138 Y83.689 E-0.23659
G1 X115.948 Y82.685 E-0.23594
G1 X115.884 Y82.113 E-0.13287
G1 E-0.04000 F2100.00000
G1 Z0.600 F10800.000
G1 X98.830 Y101.241
G1 Z0.200
G1 E0.80000 F2100.00000
G1 F1200.000
G1 X99.468 Y102.035 E0.03192
G1 X99.755 Y102.454 E0.01593
G1 X100.040 Y102.878 E0.01603
G1 X100.544 Y103.762 E0.03192
G1 X100.976 Y104.685 E0.03193
G1 X101.333 Y105.639 E0.03193
G1 X101.613 Y106.618 E0.03193
G1 X101.815 Y107.616 E0.03194
G1 X101.937 Y108.627 E0.03193
G1 X101.978 Y109.645 E0.03194
G1 X101.937 Y110.663 E0.03194
G1 X101.815 Y111.674 E0.03193
G1 X101.715 Y112.174 E0.01597
G1 X101.613 Y112.673 E0.01597
G1 X101.333 Y113.652 E0.03193
G1 X100.976 Y114.606 E0.03193
G1 X100.544 Y115.528 E0.03193
G1 X100.040 Y116.413 E0.03192
G1 X99.756 Y116.835 E0.01598
G1 X99.468 Y117.256 E0.01598
G1 X98.830 Y118.050 E0.03192
G1 X98.132 Y118.791 E0.03193
G1 X97.377 Y119.474 E0.03193
G1 X96.571 Y120.095 E0.03191
G1 X96.145 Y120.375 E0.01598
G1 X95.716 Y120.651 E0.01598
G1 X94.821 Y121.136 E0.03191
G1 X93.891 Y121.549 E0.03193
G1 X92.930 Y121.887 E0.03193
G1 X91.946 Y122.147 E0.03191
G1 X91.445 Y122.240 E0.01598
G1 X90.943 Y122.329 E0.01598
G1 X89.930 Y122.430 E0.03192
G1 X88.912 Y122.451 E0.03193
G1 X87.895 Y122.390 E0.03193
G1 X86.887 Y122.250 E0.03193
G1 X86.391 Y122.141 E0.01592
G1 X85.892 Y122.029 E0.01603
G1 X84.919 Y121.730 E0.03193
G1 X83.972 Y121.355 E0.03194
G1 X83.057 Y120.906 E0.03194
G1 X82.182 Y120.385 E0.03194
G1 X81.766 Y120.090 E0.01597
G1 X81.351 Y119.795 E0.01597
G1 X80.570 Y119.142 E0.03193
G1 X79.843 Y118.428 E0.03193
G1 X79.175 Y117.660 E0.03193
G1 X78.570 Y116.841 E0.03192
G1 X78.300 Y116.409 E0.01598
G1 X78.032 Y115.975 E0.01598
G1 X77.565 Y115.071 E0.03192
G1 X77.171 Y114.132 E0.03193
G1 X76.852 Y113.164 E0.03193
G1 X76.612 Y112.175 E0.03193
G1 X76.451 Y111.169 E0.03193
G1 X76.370 Y110.155 E0.03191
G1 X76.370 Y109.135 E0.03197
G1 X76.451 Y108.121 E0.03191
G1 X76.612 Y107.116 E0.03193
G1 X76.852 Y106.126 E0.03193
G1 X77.171 Y105.159 E0.03193
G1 X77.565 Y104.220 E0.03193
G1 X78.032 Y103.315 E0.03192
G1 X78.300 Y102.882 E0.01598
G1 X78.570 Y102.450 E0.01598
G1 X79.175 Y101.631 E0.03192
G1 X79.843 Y100.862 E0.03193
G1 X80.570 Y100.149 E0.03193
G1 X81.351 Y99.495 E0.03193
G1 X81.765 Y99.201 E0.01592
G1 X82.182 Y98.906 E0.01603
G1 X83.057 Y98.385 E0.03194
G1 X83.972 Y97.935 E0.03194
G1 X84.919 Y97.560 E0.03194
G1 X85.892 Y97.262 E0.03193
G1 X86.887 Y97.041 E0.03195
G1 X87.895 Y96.900 E0.03193
G1 X88.905 Y96.840 E0.03170
G1 X89.930 Y96.860 E0.03216
G1 X90.943 Y96.962 E0.03192
G1 X91.946 Y97.143 E0.03196
G1 X92.930 Y97.404 E0.03191
G1 X93.891 Y97.742 E0.03193
G1 X94.821 Y98.154 E0.03193
G1 X95.716 Y98.640 E0.03191
G1 X96.571 Y99.196 E0.03197
G1 X97.377 Y99.816 E0.03191
G1 X98.132 Y100.500 E0.03193
G1 X98.789 Y101.197 E0.03005
G1 X99.223 Y101.164 F10800.000
G1 X99.068 Y100.948
G1 F1200.000
G1 X99.341 Y101.254 E0.01283
G1 X99.954 Y102.058 E0.03169
G1 X100.502 Y102.904 E0.03163
G1 X100.985 Y103.793 E0.03171
G1 X101.398 Y104.715 E0.03168
G1 X101.740 Y105.666 E0.03168
G1 X102.008 Y106.640 E0.03168
G1 X102.138 Y107.305 E0.02124
G1 X102.200 Y107.632 E0.01042
G1 X102.316 Y108.636 E0.03169
G1 X102.355 Y109.645 E0.03168
G1 X102.316 Y110.655 E0.03168
G1 X102.200 Y111.659 E0.03170
G1 X102.137 Y111.988 E0.01048
G1 X102.008 Y112.650 E0.02117
G1 X101.740 Y113.625 E0.03169
G1 X101.398 Y114.575 E0.03168
G1 X100.985 Y115.498 E0.03171
G1 X100.503 Y116.385 E0.03163
G1 X99.953 Y117.233 E0.03169
G1 X99.341 Y118.037 E0.03168
G1 X98.668 Y118.792 E0.03171
G1 X97.941 Y119.491 E0.03161
G1 X97.161 Y120.134 E0.03169
G1 X96.335 Y120.715 E0.03167
G1 X95.466 Y121.231 E0.03168
G1 X94.861 Y121.534 E0.02122
G1 X94.562 Y121.679 E0.01041
G1 X93.625 Y122.057 E0.03170
G1 X92.662 Y122.362 E0.03167
G1 X91.677 Y122.592 E0.03169
G1 X91.009 Y122.700 E0.02122
G1 X90.681 Y122.746 E0.01039
G1 X89.672 Y122.824 E0.03172
G1 X88.662 Y122.824 E0.03168
G1 X87.654 Y122.746 E0.03169
G1 X86.656 Y122.592 E0.03168
G1 X85.673 Y122.362 E0.03165
G1 X84.709 Y122.057 E0.03170
G1 X83.772 Y121.680 E0.03168
G1 X82.866 Y121.231 E0.03168
G1 X81.998 Y120.715 E0.03168
G1 X81.172 Y120.134 E0.03167
G1 X80.392 Y119.491 E0.03168
G1 X79.664 Y118.790 E0.03168
G1 X78.992 Y118.036 E0.03168
G1 X78.379 Y117.231 E0.03171
G1 X78.196 Y116.954 E0.01041
G1 X77.830 Y116.384 E0.02123
G1 X77.347 Y115.497 E0.03169
G1 X76.934 Y114.575 E0.03168
G1 X76.593 Y113.624 E0.03167
G1 X76.325 Y112.649 E0.03171
G1 X76.133 Y111.659 E0.03162
G1 X76.017 Y110.655 E0.03169
G1 X75.979 Y109.645 E0.03167
G1 X76.017 Y108.636 E0.03167
G1 X76.133 Y107.632 E0.03169
G1 X76.258 Y106.967 E0.02122
G1 X76.325 Y106.641 E0.01042
G1 X76.593 Y105.667 E0.03169
G1 X76.934 Y104.716 E0.03167
G1 X77.347 Y103.794 E0.03168
G1 X77.831 Y102.906 E0.03171
G1 X78.197 Y102.335 E0.02125
G1 X78.379 Y102.059 E0.01037
G1 X78.992 Y101.255 E0.03171
G1 X79.664 Y100.500 E0.03168
G1 X80.392 Y99.800 E0.03168
G1 X81.172 Y99.157 E0.03168
G1 X81.725 Y98.767 E0.02124
G1 X81.998 Y98.575 E0.01043
G1 X82.866 Y98.059 E0.03168
G1 X83.772 Y97.611 E0.03168
G1 X84.709 Y97.233 E0.03169
G1 X85.672 Y96.929 E0.03166
G1 X86.656 Y96.698 E0.03168
G1 X87.655 Y96.544 E0.03168
G1 X88.662 Y96.467 E0.03168
G1 X89.672 Y96.467 E0.03166
G1 X90.680 Y96.544 E0.03170
G1 X91.678 Y96.698 E0.03167
G1 X92.663 Y96.929 E0.03171
G1 X92.980 Y97.025 E0.01040
G1 X93.624 Y97.233 E0.02122
G1 X94.561 Y97.611 E0.03169
G1 X95.467 Y98.060 E0.03167
G1 X96.335 Y98.576 E0.03169
G1 X97.160 Y99.156 E0.03163
G1 X97.941 Y99.799 E0.03170
G1 X98.669 Y100.500 E0.03167
G1 X99.028 Y100.903 E0.01696
G1 X98.949 Y101.330 F10800.000
; stop printing object 135_tube.stl id:1 copy 0
; printing object t1_clip.stl id:3 copy 0
G1 F8640.000
G1 X99.341 Y101.254 E-0.10836
G1 X99.954 Y102.058 E-0.23341
G1 X100.502 Y102.904 E-0.23291
G1 X100.885 Y103.609 E-0.18532
G1 E-0.04000 F2100.00000
G1 Z0.600 F10800.000
G1 X121.673 Y141.522
G1 Z0.200
G1 E0.80000 F2100.00000
G1 F1200.000
G1 X122.908 Y142.235 E0.04471
G1 X117.007 Y152.455 E0.37002
G1 X122.908 Y162.675 E0.37002
G1 X121.673 Y163.388 E0.04471
G1 X115.772 Y153.168 E0.37002
G1 X103.971 Y153.168 E0.37002
G1 X103.971 Y151.742 E0.04471
G1 X115.772 Y151.742 E0.37002
G1 X121.643 Y141.574 E0.36814
G1 F8640.000
G1 X122.908 Y142.235 E-0.32952
G1 X121.975 Y143.849 E-0.43048
G1 E-0.04000 F2100.00000
G1 Z0.600 F10800.000
G1 X117.442 Y152.455
G1 Z0.200
G1 E0.80000 F2100.00000
G1 F1200.000
G1 X123.423 Y162.813 E0.37502
G1 X121.535 Y163.903 E0.06835
G1 X115.554 Y153.545 E0.37502
G1 X103.594 Y153.545 E0.37502
G1 X103.594 Y151.365 E0.06835
G1 X115.554 Y151.365 E0.37502
G1 X121.535 Y141.007 E0.37502
G1 X123.423 Y142.097 E0.06835
G1 X117.472 Y152.403 E0.37314
G1 X117.152 Y152.730 F10800.000
G1 F8640.000
G1 X119.106 Y155.261 E-0.76000
G1 E-0.04000 F2100.00000
G1 Z0.600 F10800.000
G1 X115.585 Y153.055
G1 Z0.200
G1 E0.80000 F2100.00000
G1 F1200.000
G1 X114.555 Y152.025 E0.04596
G1 X114.018 Y152.025 E0.01694
G1 X114.879 Y152.885 E0.03839
G1 X114.342 Y152.885 E0.01694
G1 X113.482 Y152.025 E0.03839
G1 X112.945 Y152.025 E0.01694
G1 X113.805 Y152.885 E0.03839
G1 X113.269 Y152.885 E0.01694
G1 X112.408 Y152.025 E0.03839
G1 X111.872 Y152.025 E0.01694
