; generated by PrusaSlicer 2.4.0+win64 on 2022-12-06 at 18:27:39 UTC

; 

; external perimeters extrusion width = 0.45mm
; perimeters extrusion width = 0.45mm
; infill extrusion width = 0.45mm
; solid infill extrusion width = 0.45mm
; top infill extrusion width = 0.40mm
; first layer extrusion width = 0.42mm

M73 P0 R8
M73 Q0 S8
M201 X1000 Y1000 Z200 E5000 ; sets maximum accelerations, mm/sec^2
M203 X200 Y200 Z12 E120 ; sets maximum feedrates, mm/sec
M204 P1250 R1250 T1250 ; sets acceleration (P, T) and retract acceleration (R), mm/sec^2
M205 X8.00 Y8.00 Z0.40 E4.50 ; sets the jerk limits, mm/sec
M205 S0 T0 ; sets the minimum extruding and travel feed rate, mm/sec
M107
;TYPE:Custom
M862.3 P "MK3S" ; printer model check
M862.1 P0.4 ; nozzle diameter check
M115 U3.10.1 ; tell printer latest fw version
G90 ; use absolute coordinates
M83 ; extruder relative mode
M104 S215 ; set extruder temp
M140 S60 ; set bed temp
M190 S60 ; wait for bed temp
M109 S215 ; wait for extruder temp
G28 W ; home all without mesh bed level
G80 ; mesh bed leveling
G1 Z0.2 F720
G1 Y-3 F1000 ; go outside print area
G92 E0
G1 X60 E9 F1000 ; intro line
G1 X100 E12.5 F1000 ; intro line
G92 E0
M221 S95

; Don't change E values below. Excessive value can damage the printer.
M907 E430 ; set extruder motor current
G21 ; set units to millimeters
G90 ; use absolute coordinates
M83 ; use relative distances for extrusion
M900 K0.05 ; Filament gcode LA 1.5
M900 K30 ; Filament gcode LA 1.0
M107
;LAYER_CHANGE
;Z:0.2
;HEIGHT:0.2
;BEFORE_LAYER_CHANGE
G92 E0.0
;0.2


G1 E-.8 F2100
M73 P1 R8
M73 Q1 S8
G1 Z.4 F720
;AFTER_LAYER_CHANGE
;0.2
G1 X106.631 Y99.752 F10800
G1 Z.2 F720
G1 E.8 F2100
M204 S800
;TYPE:Skirt/Brim
;WIDTH:0.42
G1 F1200
G1 X107.615 Y98.785 E.04328
G1 X110.646 Y97.035 E.10974
G1 X112.053 Y96.666 E.04559
G1 X135.486 Y96.916 E.73477
G1 X136.833 Y97.285 E.04381
G1 X142.385 Y100.49 E.20099
G1 X143.416 Y101.539 E.04612
G1 X143.762 Y102.875 E.04328
G1 X143.762 Y107.375 E.14109
G1 X143.369 Y108.792 E.04612
G1 X142.385 Y109.76 E.04328
G1 X136.833 Y112.965 E.20099
M73 Q2 S8
G1 X135.374 Y113.333 E.04718
G1 X111.928 Y112.583 E.73552
M73 P2 R8
G1 X110.646 Y112.215 E.04181
G1 X107.615 Y110.465 E.10974
G1 X106.584 Y109.416 E.04612
G1 X106.238 Y108.08 E.04328
G1 X106.238 Y101.17 E.21667
G1 X106.615 Y99.81 E.04424
M204 S1000
G1 X106.989 Y99.922 F10800
M204 S800
G1 F1200
G1 X107.007 Y99.863 E.00195
G1 X107.804 Y99.111 E.03435
G1 X110.835 Y97.361 E.10974
G1 X112.049 Y97.043 E.03935
G1 X135.482 Y97.293 E.73477
G1 X136.645 Y97.611 E.03781
G1 X142.196 Y100.816 E.20099
G1 X143.132 Y101.809 E.04278
G1 X143.385 Y102.875 E.03435
G1 X143.385 Y107.375 E.14109
G1 X142.993 Y108.682 E.04278
G1 X142.196 Y109.434 E.03435
G1 X136.645 Y112.639 E.20099
G1 X135.386 Y112.956 E.04072
M73 Q3 S8
G1 X111.941 Y112.206 E.73546
G1 X110.835 Y111.889 E.03608
M73 P3 R7
G1 X107.804 Y110.139 E.10974
G1 X106.868 Y109.146 E.04278
G1 X106.615 Y108.08 E.03435
G1 X106.615 Y101.17 E.21667
M73 Q3 S7
G1 X106.972 Y99.98 E.03895
M204 S1000
; printing object clip_sizes.stl id:0 copy 0
;WIPE_START
G1 F8640
G1 X107.007 Y99.863 E-.0282
G1 X107.804 Y99.111 E-.25294
G1 X109.6 Y98.074 E-.47886
;WIPE_END
G1 E-.04 F2100
G1 Z.6 F720
G1 X132.981 Y102.008 F10800
G1 Z.2 F720
G1 E.8 F2100
M204 S800
;TYPE:Perimeter
G1 F1200
G1 X135.168 Y100.745 E.0792
G1 X136.852 Y103.662 E.10561
G1 X140.221 Y103.662 E.10561
G1 X140.221 Y106.588 E.09174
G1 X136.852 Y106.588 E.10561
G1 X135.168 Y109.505 E.10561
G1 X132.634 Y108.042 E.09174
G1 X134.319 Y105.125 E.10561
G1 X132.634 Y102.208 E.10561
G1 X132.929 Y102.038 E.01066
M204 S1000
G1 X132.119 Y102.07 F10800
M204 S800
;TYPE:External perimeter
G1 F1200
G1 X135.306 Y100.23 E.11538
G1 X137.07 Y103.285 E.11061
G1 X140.598 Y103.285 E.11061
G1 X140.598 Y106.965 E.11538
G1 X137.07 Y106.965 E.11061
M73 Q4 S7
G1 X135.306 Y110.02 E.11061
G1 X132.119 Y108.18 E.11538
M73 P4 R7
G1 X133.883 Y105.125 E.11061
G1 X132.149 Y102.122 E.10873
M204 S1000
G1 X132.513 Y102.139 F10800
;WIPE_START
G1 F8640
G1 X134.973 Y100.43 E-.76
;WIPE_END
G1 E-.04 F2100
G1 Z.6 F720
G1 X135.6 Y101.718 F10800
G1 Z.2 F720
G1 E.8 F2100
M204 S800
;TYPE:Solid infill
;WIDTH:0.434001
G1 F1200
G1 X135.032 Y101.15 E.02612
G1 X134.681 Y101.353 E.01317
G1 X136.355 Y103.027 E.07699
M204 S1000
;WIPE_START
G1 F8640
G1 X134.681 Y101.353 E-.54666
G1 X135.032 Y101.15 E-.09349
G1 X135.399 Y101.517 E-.11985
;WIPE_END
G1 E-.04 F2100
G1 Z.6 F720
G1 X139.316 Y103.775 F10800
G1 Z.2 F720
G1 E.8 F2100
M204 S800
G1 F1200
G1 X139.938 Y104.397 E.02862
G1 X139.938 Y104.951 E.01799
G1 X138.932 Y103.945 E.04625
G1 X138.379 Y103.945 E.01799
G1 X139.938 Y105.504 E.07168
G1 X139.938 Y106.057 E.01799
G1 X137.826 Y103.945 E.09712
G1 X137.273 Y103.945 E.01799
G1 X139.633 Y106.305 E.10854
G1 X139.08 Y106.305 E.01799
G1 X134.33 Y101.555 E.21844
G1 X133.98 Y101.758 E.01317
G1 X138.527 Y106.305 E.20913
G1 X137.974 Y106.305 E.01799
G1 X133.629 Y101.96 E.19982
G1 X133.278 Y102.163 E.01317
G1 X137.421 Y106.305 E.19051
G1 X136.868 Y106.305 E.01799
G1 X133.221 Y102.658 E.16773
G1 X133.976 Y103.966 E.04914
G1 X136.552 Y106.542 E.11846
G1 X136.35 Y106.893 E.01317
G1 X134.622 Y105.165 E.07946
G1 X134.419 Y105.516 E.01317
G1 X136.147 Y107.244 E.07946
G1 X135.945 Y107.594 E.01317
M73 Q5 S7
G1 X134.217 Y105.866 E.07946
G1 X134.015 Y106.217 E.01317
G1 X135.742 Y107.945 E.07946
G1 X135.54 Y108.296 E.01317
M73 P5 R7
G1 X133.812 Y106.568 E.07946
G1 X133.61 Y106.918 E.01317
G1 X135.337 Y108.646 E.07946
G1 X135.135 Y108.997 E.01317
G1 X133.407 Y107.269 E.07946
G1 X133.205 Y107.62 E.01317
G1 X134.674 Y109.089 E.06758
M204 S1000
;WIPE_START
G1 F8640
G1 X133.205 Y107.62 E-.47988
G1 X133.407 Y107.269 E-.09349
G1 X133.979 Y107.841 E-.18663
;WIPE_END
G1 E-.04 F2100
G1 Z.6 F720
G1 X127.437 Y106.088 F10800
G1 Z.2 F720
G1 E.8 F2100
M204 S800
;TYPE:Perimeter
;WIDTH:0.42
G1 F1200
G1 X124.324 Y106.088 E.09759
G1 X122.568 Y109.13 E.11014
G1 X120.467 Y107.917 E.07606
G1 X122.223 Y104.875 E.11014
G1 X120.467 Y101.833 E.11014
G1 X122.568 Y100.62 E.07606
G1 X124.324 Y103.662 E.11014
G1 X127.837 Y103.662 E.11014
G1 X127.837 Y106.088 E.07606
G1 X127.497 Y106.088 E.01066
M204 S1000
G1 X128.214 Y106.465 F10800
M204 S800
;TYPE:External perimeter
G1 F1200
G1 X124.542 Y106.465 E.11513
G1 X122.706 Y109.645 E.11513
G1 X119.952 Y108.055 E.09971
G1 X121.788 Y104.875 E.11513
G1 X119.952 Y101.695 E.11513
G1 X122.706 Y100.105 E.09971
G1 X124.542 Y103.285 E.11513
G1 X128.214 Y103.285 E.11513
G1 X128.214 Y106.405 E.09783
M204 S1000
G1 X127.825 Y106.371 F10800
;WIPE_START
G1 F8640
G1 X124.923 Y106.459 E-.76
;WIPE_END
G1 E-.04 F2100
G1 Z.6 F720
G1 X127.724 Y104.543 F10800
G1 Z.2 F720
G1 E.8 F2100
M204 S800
;TYPE:Solid infill
;WIDTH:0.422502
M73 Q6 S7
G1 F1200
G1 X127.126 Y103.945 E.02669
G1 X126.589 Y103.945 E.01694
G1 X127.554 Y104.91 E.04307
G1 X127.554 Y105.447 E.01694
G1 X126.052 Y103.945 E.06704
G1 X125.515 Y103.945 E.01694
M73 P6 R7
G1 X127.376 Y105.805 E.08303
G1 X126.839 Y105.805 E.01694
G1 X124.809 Y103.775 E.09061
M204 S1000
;WIPE_START
G1 F8640
G1 X126.839 Y105.805 E-.66287
G1 X127.259 Y105.805 E-.09713
;WIPE_END
G1 E-.04 F2100
G1 Z.6 F720
G1 X123.507 Y102.474 F10800
G1 Z.2 F720
G1 E.8 F2100
M204 S800
G1 F1200
G1 X122.195 Y101.162 E.05857
G1 X121.855 Y101.358 E.0124
G1 X123.777 Y103.28 E.0858
G1 X124.161 Y103.945 E.02422
G1 X124.442 Y103.945 E.00886
G1 X126.302 Y105.805 E.08303
G1 X125.765 Y105.805 E.01694
G1 X121.515 Y101.555 E.18973
G1 X121.174 Y101.751 E.0124
G1 X125.228 Y105.805 E.18096
G1 X124.692 Y105.805 E.01694
G1 X120.895 Y102.008 E.16947
G1 X121.628 Y103.278 E.04629
G1 X124.159 Y105.809 E.11296
G1 X123.962 Y106.149 E.0124
G1 X122.361 Y104.549 E.07145
G1 X122.55 Y104.875 E.0119
G1 X122.404 Y105.128 E.00921
G1 X123.766 Y106.49 E.06079
G1 X123.569 Y106.83 E.0124
G1 X122.207 Y105.468 E.06079
G1 X122.011 Y105.808 E.0124
G1 X123.373 Y107.17 E.06079
G1 X123.176 Y107.511 E.0124
G1 X121.814 Y106.149 E.06079
G1 X121.618 Y106.489 E.0124
G1 X122.98 Y107.851 E.06079
G1 X122.783 Y108.191 E.0124
G1 X121.421 Y106.829 E.06079
G1 X121.225 Y107.17 E.0124
G1 X122.587 Y108.532 E.06079
G1 X122.464 Y108.744 E.00773
G1 X121.986 Y108.467 E.01745
G1 X120.904 Y107.386 E.04827
M204 S1000
;WIPE_START
G1 F8640
G1 X121.986 Y108.467 E-.35313
G1 X122.464 Y108.744 E-.12762
G1 X122.587 Y108.532 E-.05654
G1 X121.905 Y107.85 E-.2227
;WIPE_END
G1 E-.04 F2100
G1 Z.6 F720
G1 X116.821 Y105.588 F10800
G1 Z.2 F720
G1 E.8 F2100
M204 S800
;TYPE:Perimeter
;WIDTH:0.42
G1 F1200
G1 X113.564 Y105.588 E.10212
G1 X111.735 Y108.755 E.11466
G1 X110.067 Y107.792 E.06038
G1 X111.896 Y104.625 E.11466
M73 Q7 S7
G1 X110.067 Y101.458 E.11466
G1 X111.735 Y100.495 E.06038
M73 P7 R7
G1 X113.564 Y103.662 E.11466
G1 X117.221 Y103.662 E.11466
G1 X117.221 Y105.588 E.06038
G1 X116.881 Y105.588 E.01066
M204 S1000
G1 X117.598 Y105.965 F10800
M204 S800
;TYPE:External perimeter
G1 F1200
G1 X113.781 Y105.965 E.11966
G1 X111.873 Y109.27 E.11966
G1 X109.552 Y107.93 E.08403
G1 X111.46 Y104.625 E.11966
G1 X109.552 Y101.32 E.11966
G1 X111.873 Y99.98 E.08403
G1 X113.781 Y103.285 E.11966
G1 X117.598 Y103.285 E.11966
G1 X117.598 Y105.905 E.08215
M204 S1000
G1 X117.206 Y105.884 F10800
;WIPE_START
G1 F8640
G1 X114.307 Y105.957 E-.76
;WIPE_END
G1 E-.04 F2100
G1 Z.6 F720
G1 X117.108 Y104.557 F10800
G1 Z.2 F720
G1 E.8 F2100
M204 S800
;TYPE:Solid infill
;WIDTH:0.429407
G1 F1200
G1 X116.495 Y103.945 E.02784
G1 X115.948 Y103.945 E.01757
G1 X116.938 Y104.934 E.04497
G1 X116.938 Y105.305 E.01192
G1 X116.762 Y105.305 E.00565
G1 X115.402 Y103.945 E.06182
G1 X114.855 Y103.945 E.01757
G1 X116.216 Y105.305 E.06182
G1 X115.669 Y105.305 E.01757
G1 X114.139 Y103.775 E.06953
M204 S1000
;WIPE_START
G1 F8640
G1 X115.669 Y105.305 E-.4996
G1 X116.216 Y105.305 E-.12621
G1 X115.805 Y104.894 E-.13419
;WIPE_END
G1 E-.04 F2100
G1 Z.6 F720
G1 X112.623 Y102.259 F10800
G1 Z.2 F720
G1 E.8 F2100
M204 S800
G1 F1200
G1 X111.387 Y101.023 E.0562
G1 X111.04 Y101.223 E.01286
G1 X112.906 Y103.089 E.08481
G1 X113.4 Y103.945 E.03176
G1 X113.762 Y103.945 E.01162
G1 X115.122 Y105.305 E.06182
G1 X114.576 Y105.305 E.01757
G1 X110.694 Y101.423 E.17644
G1 X110.454 Y101.561 E.0089
G1 X110.683 Y101.959 E.01476
G1 X114.029 Y105.305 E.15207
G1 X113.483 Y105.305 E.01757
M73 Q8 S7
G1 X111.43 Y103.252 E.0933
G1 X112.177 Y104.546 E.04799
M73 P8 R7
G1 X113.23 Y105.599 E.0479
G1 X113.03 Y105.946 E.01286
G1 X112.035 Y104.95 E.04526
G1 X111.835 Y105.297 E.01286
G1 X112.83 Y106.293 E.04526
G1 X112.63 Y106.639 E.01286
G1 X111.635 Y105.643 E.04526
G1 X111.434 Y105.99 E.01286
G1 X112.43 Y106.986 E.04526
G1 X112.23 Y107.332 E.01286
G1 X111.234 Y106.336 E.04526
G1 X111.034 Y106.683 E.01286
G1 X112.03 Y107.679 E.04526
G1 X111.83 Y108.025 E.01286
G1 X110.834 Y107.029 E.04526
G1 X110.634 Y107.376 E.01286
G1 X111.754 Y108.496 E.0509
M204 S1000
; stop printing object clip_sizes.stl id:0 copy 0
M106 S84.15
;LAYER_CHANGE
;Z:0.4
;HEIGHT:0.2
;BEFORE_LAYER_CHANGE
G92 E0.0
;0.4


;WIPE_START
G1 F8640
G1 X110.634 Y107.376 E-.36573
G1 X110.834 Y107.029 E-.09239
G1 X111.759 Y107.954 E-.30188
;WIPE_END
G1 E-.04 F2100
G1 Z.6 F720
;AFTER_LAYER_CHANGE
;0.4
M104 S210 ; set temperature
G1 X109.635 Y111.632 F10800
G1 Z.4 F720
G1 E.8 F2100
;TYPE:Skirt/Brim
;WIDTH:0.42
G1 F3000
G1 X107.615 Y110.465 E.07314
G1 X106.584 Y109.416 E.04612
G1 X106.238 Y108.08 E.04328
G1 X106.238 Y101.17 E.21667
G1 X106.631 Y99.752 E.04612
G1 X107.615 Y98.785 E.04328
G1 X110.646 Y97.035 E.10974
G1 X112.053 Y96.666 E.04559
G1 X135.486 Y96.916 E.73477
G1 X136.833 Y97.285 E.04381
G1 X142.385 Y100.49 E.20099
G1 X143.416 Y101.539 E.04612
G1 X143.762 Y102.875 E.04328
G1 X143.762 Y107.375 E.14109
G1 X143.369 Y108.792 E.04612
G1 X142.385 Y109.76 E.04328
G1 X136.833 Y112.965 E.20099
G1 X135.374 Y113.333 E.04718
G1 X111.928 Y112.583 E.73552
G1 X110.646 Y112.215 E.04181
G1 X109.687 Y111.662 E.03472
G1 X109.876 Y111.335 F10800
G1 F3000
G1 X107.804 Y110.139 E.07502
G1 X106.868 Y109.146 E.04278
G1 X106.615 Y108.08 E.03435
G1 X106.615 Y101.17 E.21667
G1 X107.007 Y99.863 E.04278
G1 X107.804 Y99.111 E.03435
G1 X110.835 Y97.361 E.10974
G1 X112.049 Y97.043 E.03935
G1 X135.482 Y97.293 E.73477
G1 X136.645 Y97.611 E.03781
G1 X142.196 Y100.816 E.20099
G1 X143.132 Y101.809 E.04278
M73 Q9 S7
G1 X143.385 Y102.875 E.03435
G1 X143.385 Y107.375 E.14109
G1 X142.993 Y108.682 E.04278
G1 X142.196 Y109.434 E.03435
G1 X136.645 Y112.639 E.20099
M73 P9 R7
G1 X135.386 Y112.956 E.04072
G1 X111.941 Y112.206 E.73546
G1 X110.835 Y111.889 E.03608
G1 X109.928 Y111.365 E.03284
; printing object clip_sizes.stl id:0 copy 0
;WIPE_START
G1 F8640
G1 X107.804 Y110.139 E-.56634
G1 X107.228 Y109.529 E-.19366
;WIPE_END
G1 E-.04 F2100
G1 Z.8 F720
G1 X132.623 Y107.752 F10800
G1 Z.4 F720
G1 E.8 F2100
M204 S800
;TYPE:Perimeter
;WIDTH:0.45
G1 F1500
G1 X134.14 Y105.125 E.10269
G1 X132.423 Y102.151 E.11623
G1 X135.225 Y100.533 E.10953
G1 X136.942 Y103.507 E.11623
G1 X140.376 Y103.507 E.11623
G1 X140.376 Y106.743 E.10953
G1 X136.942 Y106.743 E.11623
G1 X135.225 Y109.717 E.11623
G1 X132.423 Y108.099 E.10953
G1 X132.593 Y107.804 E.01151
M204 S1000
G1 X131.867 Y108.248 F10800
M204 S800
;TYPE:External perimeter
G1 F1500
G1 X133.67 Y105.125 E.12205
G1 X131.867 Y102.002 E.12205
G1 X135.374 Y99.977 E.13709
G1 X137.177 Y103.1 E.12205
G1 X140.783 Y103.1 E.12205
G1 X140.783 Y107.15 E.13709
G1 X137.177 Y107.15 E.12205
G1 X135.374 Y110.273 E.12205
G1 X131.919 Y108.278 E.13506
M204 S1000
G1 X132.155 Y107.97 F10800
;WIPE_START
G1 F8640
G1 X133.517 Y105.4 E-.76
;WIPE_END
G1 E-.04 F2100
G1 Z.8 F720
G1 X139.425 Y106.621 F10800
G1 Z.4 F720
G1 E.8 F2100
;TYPE:Solid infill
;WIDTH:0.452535
G1 F4800
M73 Q10 S7
G1 X140.07 Y105.976 E.03107
G1 X140.07 Y105.396 E.01973
G1 X139.029 Y106.438 E.05015
G1 X138.45 Y106.438 E.01973
G1 X140.07 Y104.817 E.07805
G1 X140.07 Y104.238 E.01973
G1 X137.687 Y106.621 E.11478
;WIPE_START
G1 F8640
M73 P10 R7
G1 X140.015 Y104.293 E-.76
;WIPE_END
G1 E-.04 F2100
G1 Z.8 F720
G1 X135.757 Y108.552 F10800
G1 Z.4 F720
G1 E.8 F2100
G1 F4800
G1 X135.047 Y109.261 E.03419
G1 X134.68 Y109.049 E.01444
G1 X136.047 Y107.682 E.06588
G1 X136.766 Y106.438 E.04892
G1 X137.291 Y106.438 E.01791
G1 X139.917 Y103.812 E.12645
G1 X139.337 Y103.812 E.01973
G1 X134.312 Y108.837 E.24204
G1 X133.945 Y108.625 E.01444
G1 X138.758 Y103.812 E.23182
G1 X138.179 Y103.812 E.01973
G1 X133.578 Y108.413 E.22161
G1 X133.211 Y108.201 E.01444
G1 X137.599 Y103.812 E.2114
G1 X137.02 Y103.812 E.01973
G1 X132.84 Y107.987 E.20122
G1 X133.623 Y106.63 E.05336
G1 X136.647 Y103.607 E.14565
G1 X136.435 Y103.239 E.01444
G1 X134.414 Y105.26 E.09732
G1 X134.492 Y105.125 E.00529
G1 X134.301 Y104.794 E.01302
G1 X136.223 Y102.872 E.09257
G1 X136.011 Y102.505 E.01444
G1 X134.089 Y104.427 E.09257
G1 X133.877 Y104.059 E.01444
G1 X135.799 Y102.138 E.09257
G1 X135.587 Y101.77 E.01444
G1 X133.665 Y103.692 E.09257
G1 X133.453 Y103.325 E.01444
G1 X135.375 Y101.403 E.09257
G1 X135.163 Y101.036 E.01444
G1 X133.241 Y102.958 E.09257
G1 X133.029 Y102.59 E.01444
G1 X134.562 Y101.057 E.07385
;WIPE_START
G1 F8640
G1 X133.029 Y102.59 E-.50064
G1 X133.241 Y102.958 E-.09792
G1 X133.735 Y102.463 E-.16144
;WIPE_END
G1 E-.04 F2100
G1 Z.8 F720
G1 X127.992 Y103.907 F10800
G1 Z.4 F720
G1 E.8 F2100
M204 S800
;TYPE:Perimeter
;WIDTH:0.45
G1 F1500
G1 X127.992 Y106.243 E.07907
G1 X124.414 Y106.243 E.12112
G1 X122.624 Y109.342 E.12112
G1 X120.255 Y107.974 E.09261
G1 X122.044 Y104.875 E.12112
G1 X120.255 Y101.776 E.12112
G1 X122.624 Y100.408 E.09261
G1 X124.414 Y103.507 E.12112
G1 X127.992 Y103.507 E.12112
G1 X127.992 Y103.847 E.01151
M204 S1000
G1 X128.399 Y103.1 F10800
M204 S800
;TYPE:External perimeter
G1 F1500
G1 X128.399 Y106.65 E.12016
G1 X124.649 Y106.65 E.12694
M73 Q11 S7
G1 X122.773 Y109.898 E.12694
G1 X119.699 Y108.123 E.12016
M73 P11 R7
G1 X121.574 Y104.875 E.12694
G1 X119.699 Y101.627 E.12694
G1 X122.773 Y99.852 E.12016
G1 X124.649 Y103.1 E.12694
G1 X128.339 Y103.1 E.12491
M204 S1000
G1 X128.142 Y103.406 F10800
;WIPE_START
G1 F8640
G1 X128.394 Y106.391 E-.76
;WIPE_END
G1 E-.04 F2100
G1 Z.8 F720
G1 X123.104 Y108.267 F10800
G1 Z.4 F720
G1 E.8 F2100
;TYPE:Solid infill
;WIDTH:0.460942
G1 F4800
